svgs/thin/pills.svg

<svg xmlns="http://www.w3.org/2000/svg" viewBox="0 0 576 512"><!-- Font Awesome Pro 6.0.0-alpha2 by @fontawesome - https://fontawesome.com License - https://fontawesome.com/license (Commercial License) --><path d="M529.137 206.863C497.895 175.621 456.947 160 416 160S334.105 175.621 302.863 206.863C240.379 269.348 240.379 370.652 302.863 433.137C334.105 464.379 375.053 480 416 480S497.895 464.379 529.137 433.137C591.621 370.652 591.621 269.348 529.137 206.863ZM416 464C377.537 464 341.375 449.021 314.178 421.822C286.979 394.625 272 358.463 272 320C272 284.25 285.414 250.803 309.08 224.379L511.605 426.934C485.186 450.588 451.742 464 416 464ZM522.92 415.621L320.395 213.066C346.814 189.412 380.258 176 416 176C454.463 176 490.625 190.979 517.822 218.178C545.021 245.375 560 281.537 560 320C560 355.75 546.586 389.197 522.92 415.621ZM112 32C50.145 32 0 82.145 0 144V368C0 429.855 50.145 480 112 480S224 429.855 224 368V144C224 82.145 173.855 32 112 32ZM208 368C208 420.936 164.936 464 112 464S16 420.936 16 368V264H208V368ZM208 248H16V144C16 91.064 59.064 48 112 48S208 91.064 208 144V248Z"/></svg>

<svg xmlns="http://www.w3.org/2000/svg" viewBox="0 0 576 512"><!--! Font Awesome Pro 6.3.0 by @fontawesome - https://fontawesome.com License - https://fontawesome.com/license (Commercial License) Copyright 2023 Fonticons, Inc. --><path d="M529.1 206.9C497.9 175.6 456.9 160 416 160s-81.95 15.61-113.2 46.85c-62.48 62.48-62.48 163.8 0 226.3C334 464.4 375.1 480 416 480s81.89-15.6 113.1-46.84C591.6 370.7 591.6 269.3 529.1 206.9zM416 464c-38.46 0-74.63-14.98-101.8-42.18C286.1 394.6 272 358.5 272 320c0-35.75 13.41-69.2 37.08-95.62l202.5 202.6C485.2 450.6 451.7 464 416 464zM522.9 415.6l-202.5-202.6C346.8 189.4 380.3 176 416 176c38.46 0 74.63 14.98 101.8 42.18C545 245.4 560 281.5 560 320C560 355.8 546.6 389.2 522.9 415.6zM112 32C50.15 32 0 82.14 0 143.1v223.1c0 61.86 50.15 111.1 112 111.1s112-50.14 112-111.1V143.1C224 82.14 173.9 32 112 32zM208 368c0 52.94-43.06 96-96 96s-96-43.06-96-96V264h192V368zM208 248h-192V144c0-52.94 43.06-96 96-96s96 43.06 96 96V248z"/></svg>
